X:3814
T:Danza (CT 286)
R:Danza
C:Trad.
Z:Cancioneru de Torner 286
M:6/8
L:1/8
Q:3/8=88
W:Si por beber nuna fuente (bis)
W:dejaste secar l otra (bis)
W:amar para aborrecer
W:es una inorancia loca.
K:G
"Solo"d2d|B2c d2e|d2c c2B|A2B c2d|c3 B3-|B2z
"Coro"B2B|G2A B2c|B2A A2G|F2G A2B|A3 G3-|
[1G2z d2d:|[2 G2 z4||
